!!!COM: Palestrina, Giovanni Perluigi da
!!!OPR: Missa Benedicta es
!!!OMD: Credo
!!!OTL: Et in Spiritum
**kern	**kern	**kern	**kern	**kern	**kern
*Ibass	*Ibass	*Itenor	*Icalto	*Icalto	*Icant
!Bassus 2	!Bassus 1	!Tenor	!Altus 2	!Altus 1	!Cantus
*clefF4	*clefF4	*clefGv2	*clefG2	*clefG2	*clefG2
*k[]	*k[]	*k[]	*k[]	*k[]	*k[]
*G:mix	*G:mix	*G:mix	*G:mix	*G:mix	*G:mix
*M4/2	*M4/2	*M4/2	*M4/2	*M4/2	*M4/2
=168	=168	=168	=168	=168	=168
0r	0r	0r	0d	0G	1r
.	.	.	.	.	[1g
=169	=169	=169	=169	=169	=169
0r	0r	0r	1d	1G	1g]
.	.	.	1e	1c	1g
=170	=170	=170	=170	=170	=170
0r	0r	0r	2e	2A	1a
.	.	.	2e	2A	.
.	.	.	1f	1d	2a
.	.	.	.	.	2a
=171	=171	=171	=171	=171	=171
0r	0r	0r	2d	1G	1b
.	.	.	1g	.	.
.	.	.	.	[1c	1g
.	.	.	2e	.	.
=172	=172	=172	=172	=172	=172
0r	0r	0r	1e	2c]	1.cc
.	.	.	.	2A	.
.	.	.	[1f	2A	.
.	.	.	.	[2d	2a
=173	=173	=173	=173	=173	=173
0r	0r	0r	2f]	2d]	1a
.	.	.	2e	2c	.
.	.	.	2d	2B	1dd
.	.	.	2g	2G	.
=174	=174	=174	=174	=174	=174
0r	0r	0r	2.e	4A	1cc
.	.	.	.	4B	.
.	.	.	.	4c	.
.	.	.	4f	4d	.
.	.	.	2g	4e	2b
.	.	.	.	4f	.
.	.	.	2e	[2g	2g
=175	=175	=175	=175	=175	=175
0r	1r	0r	1d	2g]	0a
.	.	.	.	4f#	.
.	.	.	.	4e	.
.	1D	.	1d	1f#	.
=176	=176	=176	=176	=176	=176
0r	2E	1G	1B	1g	1g
.	1G	.	.	.	.
.	.	2A	1A	1r	1r
.	2F	[2c	.	.	.
=177	=177	=177	=177	=177	=177
0r	2E	2c]	2G	2r	0r
.	2D	2B	2B	2d	.
.	2C	2A	2c	2e	.
.	2E	2G	2c	[2g	.
=178	=178	=178	=178	=178	=178
0r	1D	2B	1d	2g]	1r
.	.	2A	.	2f	.
.	2C	2G	4G	2e	1g
.	.	.	4A	.	.
.	2BB	[2G	2B	2d	.
=179	=179	=179	=179	=179	=179
0r	1AA	2G]	2c	2c	2a
.	.	2F#	2A	2c	1cc
.	[1GG	1G	2.B	2e	.
.	.	.	.	[2d	4b
.	.	.	4c	.	4a
=180	=180	=180	=180	=180	=180
1.G	1GG]	2r	1d	4d]	2.b
.	.	.	.	4c	.
.	.	1d	.	4B	.
.	.	.	.	4A	4cc
.	1r	.	2r	1B	1dd
2G	.	2d	[2g	.	.
=181	=181	=181	=181	=181	=181
1G	1.C	0e	2g]	1c	0cc
.	.	.	2g	.	.
1E	.	.	1g	2r	.
.	2C	.	.	[2e	.
=182	=182	=182	=182	=182	=182
1E	1C	2c	2e	2e]	1g
.	.	1c	2c	2e	.
[1A	1AA	.	2.c	1e	[1cc
.	.	[2e	.	.	.
.	.	.	4d	.	.
=183	=183	=183	=183	=183	=183
1A]	1AA	4e]	1e	1c	2cc]
.	.	4d	.	.	.
.	.	4c	.	.	2a
.	.	4B	.	.	.
1A	[1D	4A	[1f	2d	1a
.	.	4G	.	.	.
.	.	4F	.	4d	.
.	.	4E	.	4c	.
=184	=184	=184	=184	=184	=184
0D	1D]	2.F	2f]	4d	1a
.	.	.	.	4e	.
.	.	.	2d	2.f	.
.	.	4G	.	.	.
.	1D	2A	1d	.	1dd
.	.	.	.	4e	.
.	.	2F	.	4d	.
.	.	.	.	4c	.
=185	=185	=185	=185	=185	=185
2r	1GG	1G	1d	2.B	2.b
1G	.	.	.	.	.
.	.	.	.	4G	4cc
.	1r	2r	2B	1G	2dd
2E	.	2G	2c	.	[2cc
=186	=186	=186	=186	=186	=186
2F	0r	2A	1d	1r	2cc]
2G	.	2B	.	.	2b
1C	.	1c	1e	2r	2a
.	.	.	.	2g	2g
=187	=187	=187	=187	=187	=187
1D	1r	1A	1d	2g	2r
.	.	.	.	2f#	2dd
1GG	2r	1G	2d	2g	2dd
.	2G	.	2d	4f	2b
.	.	.	.	4e	.
=188	=188	=188	=188	=188	=188
0r	2G	2r	2B	2d	2dd
.	2E	2G	2c	2g	1cc
.	2F	2A	1d	4f	.
.	.	.	.	4e	.
.	2G	2B	.	2d	2b
=189	=189	=189	=189	=189	=189
0r	1C	2.c	1e	2c	2a
.	.	.	.	2G	1g
.	.	4B	.	.	.
.	1D	1A	1d	2r	.
.	.	.	.	[2d	2f#
=190	=190	=190	=190	=190	=190
2r	0GG	0G	1B	2d]	2g
1G	.	.	.	2d	1b
.	.	.	2r	2d	.
2G	.	.	[2g	2d	2b
=191	=191	=191	=191	=191	=191
2G	0r	0r	2g]	1e	2b
2G	.	.	2g	.	2b
1A	.	.	2e	2c	1cc
.	.	.	2e	[2A	.
=192	=192	=192	=192	=192	=192
1F	0r	0r	1.f	2A]	2a
.	.	.	.	2.d	2a
2D	.	.	.	.	2.dd
.	.	.	.	4c	.
[2G	.	.	[2d	4B	.
.	.	.	.	4A	4cc
=193	=193	=193	=193	=193	=193
4G]	0r	0r	2d]	4B	4b
4F	.	.	.	4c	4a
4E	.	.	2d	1d	1b
4D	.	.	.	.	.
1E	.	.	2.g	.	.
.	.	.	.	2c	2g
.	.	.	4e	.	.
=194	=194	=194	=194	=194	=194
1D	1r	0r	4f	2r	1a
.	.	.	4e	.	.
.	.	.	4d	2d	.
.	.	.	4c	.	.
1GG	2r	.	4B	2d	[1g
.	.	.	4A	.	.
.	2G	.	2B	2d	.
=195	=195	=195	=195	=195	=195
1C	2G	2r	1c	1e	1g]
.	2G	2c	.	.	.
1AA	1A	2c	1r	2c	1r
.	.	2c	.	[2A	.
=196	=196	=196	=196	=196	=196
1D	1F	1d	0r	2A]	0r
.	.	.	.	2.d	.
1GG	2D	1B	.	.	.
.	.	.	.	4c	.
.	[2G	.	.	4B	.
.	.	.	.	4A	.
=197	=197	=197	=197	=197	=197
0r	4G]	2G	0r	2B	1g
.	4F	.	.	.	.
.	4E	2.c	.	2.e	.
.	4D	.	.	.	.
.	2E	.	.	.	2g
.	.	4B	.	4f	.
.	2E	4A	.	[2g	2g
.	.	4G	.	.	.
=198	=198	=198	=198	=198	=198
1r	1D	2A	2r	2g]	2dd
.	.	2A	2d	2f#	2dd
2r	1GG	1G	2d	1g	1b
2G	.	.	2d	.	.
=199	=199	=199	=199	=199	=199
2G	1C	2r	2e	0r	1g
2G	.	2c	2e	.	.
2A	1AA	2c	2c	.	2.cc
2A	.	2c	[2A	.	.
.	.	.	.	.	4b
=200	=200	=200	=200	=200	=200
1F	2D	2d	2A]	0r	4a
.	.	.	.	.	4g
.	2D	2d	2.d	.	2a
2D	1GG	1B	.	.	2.dd
.	.	.	4c	.	.
[2G	.	.	4B	.	.
.	.	.	4A	.	4cc
=201	=201	=201	=201	=201	=201
4G]	0r	2G	2B	0r	4b
4F	.	.	.	.	4a
4E	.	2.c	1e	.	4g
4D	.	.	.	.	4f
1E	.	.	.	.	4e
.	.	4B	.	.	4f
.	.	4A	2c	.	[2g
.	.	4G	.	.	.
=202	=202	=202	=202	=202	=202
1D	1r	2A	0d	2r	2g]
.	.	2A	.	2A	2f#
1GG	1D	2G	.	2.B	[1g
.	.	[2B	.	.	.
.	.	.	.	4G	.
=203	=203	=203	=203	=203	=203
0r	2.E	2B]	0r	2G	0g]
.	.	1e	.	1c	.
.	4C	.	.	.	.
.	2C	.	.	.	.
.	2G	2d	.	2B	.
=204	=204	=204	=204	=204	=204
0r	2F	2d	1r	2A	0r
.	2E	2c	.	1G	.
.	1D	2B	1d	.	.
.	.	2A	.	2F#	.
=205	=205	=205	=205	=205	=205
0r	0C	1c	2.e	2G	0r
.	.	.	.	2.g	.
.	.	.	4c	.	.
.	.	1c	2c	.	.
.	.	.	.	4f	.
.	.	.	2g	2e	.
=206	=206	=206	=206	=206	=206
0r	0r	1r	2f	2d	1a
.	.	.	2e	2c	.
.	.	1G	1d	1g	2.b
.	.	.	.	.	4g
=207	=207	=207	=207	=207	=207
0r	0r	2c	2e	1g	2g
.	.	2B	2d	.	2dd
.	.	2A	4e	1r	2cc
.	.	.	4f	.	.
.	.	2G	[2g	.	2b
=208	=208	=208	=208	=208	=208
1r	0r	1d	2g]	2r	1a
.	.	.	2f#	2.d	.
2.G	.	1r	1g	.	[1b
.	.	.	.	4c	.
.	.	.	.	2d	.
4F	.	.	.	.	.
=209	=209	=209	=209	=209	=209
2G	0r	2r	0r	1e	2b]
1A	.	2.c	.	.	4a
.	.	.	.	.	4g
.	.	.	.	2c	1a
.	.	4B	.	.	.
2F	.	2c	.	2A	.
=210	=210	=210	=210	=210	=210
2D	0r	2d	0r	2B	0r
2E	.	2G	.	2c	.
2F	.	2A	.	2.d	.
[2G	.	2B	.	.	.
.	.	.	.	4c	.
=211	=211	=211	=211	=211	=211
4G]	0r	2d	2.g	2B	0r
4F	.	.	.	.	.
4E	.	2.c	.	2.e	.
4D	.	.	4f	.	.
2E	.	.	2g	.	.
.	.	4B	.	4d	.
2F	.	[2A	2a	[2c	.
=212	=212	=212	=212	=212	=212
1D	0r	2A]	2f	2c]	1r
.	.	4G	2d	2B	.
.	.	4F	.	.	.
1C	.	2G	1e	1c	2.g
.	.	[2c	.	.	.
.	.	.	.	.	4f
=213	=213	=213	=213	=213	=213
0r	1r	4c]	1e	0r	2g
.	.	4B	.	.	.
.	.	2c	.	.	1a
.	2.D	1d	2f	.	.
.	.	.	[2d	.	2f
.	4D	.	.	.	.
=214	=214	=214	=214	=214	=214
0r	2G	2B	4d]	0r	2d
.	.	.	4B	.	.
.	2E	2G	2c	.	2e
.	2D	2A	1d	.	2f
.	2GG	2B	.	.	[2g
=215	=215	=215	=215	=215	=215
0r	1.C	2.c	2r	0r	4g]
.	.	.	.	.	4f
.	.	.	1c	.	4e
.	.	4B	.	.	4d
.	.	4A	.	.	2e
.	.	4G	.	.	.
.	2D	2F	2A	.	2f
=216	=216	=216	=216	=216	=216
0r	1BB-	2G	2.B-	1r	1d
.	.	1F	.	.	.
.	.	.	4A	.	.
.	1C	.	1G	2r	1c
.	.	2E	.	[2c	.
=217	=217	=217	=217	=217	=217
1r	[0FF	1F	1A	2c]	2r
.	.	.	.	2c	1cc
[1F	.	[1A	1f	4c	.
.	.	.	.	4B-	.
.	.	.	.	4A	2cc
.	.	.	.	4G	.
=218	=218	=218	=218	=218	=218
2F]	0FF]	2A]	2f	2A	4cc
.	.	.	.	.	4b-
2F	.	2A	1f	2F	4a
.	.	.	.	.	4g
1F	.	2.A	.	1f	1a
.	.	.	[2c	.	.
.	.	4B	.	.	.
=219	=219	=219	=219	=219	=219
[0C	1r	0c	4c]	2.e	0g
.	.	.	4d	.	.
.	.	.	4e	.	.
.	.	.	4f	8d	.
.	.	.	.	8c	.
.	[1C	.	4g	2.e	.
.	.	.	4f	.	.
.	.	.	4e	.	.
.	.	.	4d	4f	.
=220	=220	=220	=220	=220	=220
0C]	2C]	0r	0e	1g	2r
.	2C	.	.	.	1cc
.	1C	.	.	2r	.
.	.	.	.	[2g	2cc
=221	=221	=221	=221	=221	=221
2r	0GG	1r	2.d	2g]	2b
1G	.	.	.	2g	2g
.	.	.	4c	.	.
.	.	2r	4B	2d	1b
.	.	.	4A	.	.
2G	.	[2d	2G	2d	.
=222	=222	=222	=222	=222	=222
2F	1.D	2d]	2A	2.f	1a
2D	.	2d	1f	.	.
.	.	.	.	4e	.
1F	.	2A	.	2d	2.a
.	2D	2A	2f	[2A	.
.	.	.	.	.	4g
=223	=223	=223	=223	=223	=223
0C	2AA	1c	2e	2A]	4a
.	.	.	.	.	4b
.	2AA	.	2c	2.e	2.cc
.	1C	2G	1e	.	.
.	.	.	.	4f	4b
.	.	[2G	.	[2g	4g
.	.	.	.	.	4a
=224	=224	=224	=224	=224	=224
1G	1GG	4G]	1d	2g]	4b
.	.	4A	.	.	4cc
.	.	4B	.	2d	1dd
.	.	4G	.	.	.
1D	[1D	1A	2r	[1f	.
.	.	.	[2d	.	4cc
.	.	.	.	.	4b
=225	=225	=225	=225	=225	=225
2.F	1D]	1d	2d]	1f]	2.a
.	.	.	1A	.	.
4G	.	.	.	.	4b
2.A	1AA	2.c	.	1e	[1cc
.	.	.	[2c	.	.
8G	.	8B	.	.	.
8F	.	8A	.	.	.
=226	=226	=226	=226	=226	=226
1E	0C	1.G	4c]	2.c	2cc]
.	.	.	4d	.	.
.	.	.	4e	.	2g
.	.	.	4f	4d	.
1C	.	.	1g	1e	1cc
.	.	2A	.	.	.
*-	*-	*-	*-	*-	*-
!!!CDT: 1525/^1526/-1594/2/2
!!!OCY: Italia
!!!AGN: Mass (Parody)
!!!AST: renaissance, vocal
!!!ASW: Motet 1520 (Josquin)
!!!PWK: Masses, Book 11
!!!RNB: Cadence finals: D
!!!YOR: Le Opere Complete, v. 28, p. 222
!!!YOO: Rome, Italy: Fratelli Scalera
!!!END: 1992//
!!!EED: John Miller
!!!YEC: Copyright 2000, John Miller
!!!YEN: United States of America
!!!YEM: Rights to all derivative electronic formats reserved.
!!!YEM: Refer to licensing agreement for further details.
!!!YEM: This file must be accompanied by the licensing agreement.
!!!YEM: A copy of the licensing agreement may be found at http://www.music-cog.ohio-state.edu/HumdrumDatabases/Palestrina/license.txt
!!!EMD: converted to Humdrum by Bret Aarden
